X:1
T: Lady Viscountess Duncan
C:
R:Strathspey
Q: 128
K:D
M:4/4
L:1/16
|:dB|A3D BAGF E4 E3B|A3D BAGF AD3 d3B|A3D BAGF E4 E3F|DA,3 A,3B, D4 D2dB|
A3D BAGF E4 E3B|A3D BAGF AD3 d3B|A3D BAGF E4 E3F|DA,3 A,3B, D4 D2g2|
f3d fgaf e4 e3g|f3d fgaf d3a fd3|g2bg f2af e4 e3f|d3B AF3 A4 A3g|
f3d fgaf e4 e3g|f3d fgaf d3B AF3|GABc d3F E4 E3F|DA,3 A,3B, D4 D2:|
